X:1
T:Aria
T: Johann Sebastian Bach BWV 515 Anna Magdalena Bach
T: Johann Sebastian Bach BWV 515 Anna Magdalena Bach
T:Aria
%%score { 1 2 }
L:1/8
M:3/4
K:F
V:1 treble nm="Piano"
V:2 bass nm="Piano"
V:1
 !3!D2 !2!D2 !1!D2 | !3!G3 A/B/ A2 | G2 FE !5!A2 | F2 EF D2 | !3!F2 !2!F2 !1!F2 | !3!A3 B/c/ F2 | %6
 !3!G2 E4 | F6 :: !3!G2 !2!G2 !1!G2 | !4!G4 E2 | !5!A2 GF ED | !3!^C6 | A,2 !3!^C2 !1!E2 | %13
 !2!G3 A/B/ A2 | !1!F2 !3!D2 !2!^C2 | D6 :| !3!D2 !2!D2 !1!D2 | !3!G3 A/B/ A2 | G2 FE !5!A2 | %19
 F2 EF D2 | !3!F2 !2!F2 !1!F2 | !3!A3 B/c/ F2 | !3!G2 E4 | F6 :: !3!G2 !2!G2 !1!G2 | !4!G4 E2 | %26
 !5!A2 GF ED | !3!^C6 | A,2 !3!^C2 !1!E2 | !2!G3 A/B/ A2 | !1!F2 !3!D2 !2!^C2 | D6 :| %32
V:2
 !5!D,2 D2 C2 | !3!B,2 !5!E,2 !3!F,2 | G,2 !1!A,2 A,,2 | !1!D,2 A,,2 !4!F,,2 | %4
 D,,2 !1!D,2 !3!B,,2 | !1!F,2 !2!C,2 !1!D,2 | !3!B,,2 !1!C,2 C,,2 | !3!F,,6 :: %8
 !1!C2 !5!E,2 !3!G,2 | !1!=B,2 !3!G,2 C2 | !3!F,4 G,2 | A,2 G,!3!F, !1!E,D, | %12
"_1. Sooft ich meine Tabakspfeife,\nMit gutem Knaster angefüllt,\nZur Lust und Zeitvertreib ergreife,\nSo gibt sie mir ein Trauerbild -\nUnd füget diese Lehre bei,\nDass ich derselben ähnlich sei. \n\n2. Die Pfeife stammt von Ton und Erde,\nAuch ich bin gleichfalls draus gemacht.\nAuch ich muss einst zur Erde werden -\nSie fällt und bricht, eh ihr's gedacht,\nMir oftmals in der Hand entzwei,\nMein Schicksal ist auch einerlei." !3!^C,=B,, A,,B,, C,D, | %13
"_3. Die Pfeife pflegt man nicht zu färben,\nSie bleibet weiß. Also der Schluss,\nDass ich auch dermaleinst im Sterben\nDem Leibe nach erblassen muss.\nIm Grabe wird der Körper auch\nSo schwarz wie sie nach langem Brauch.\n\n4. Wenn nun die Pfeife angezündet,\nSo sieht man, wie im Augenblick\nDer Rauch in freier Luft verschwindet,\nNichts als die Asche bleibt zurück.\nSo wird des Menschen Ruhm verzehrt\nUnd dessen Leib in Staub verkehrt." !1!E,2 D,2 !3!^C,2 | %14
 !2!D,2"_5. Wie oft geschieht's nicht bei dem Rauchen,\nDass, wenn der Stopfer nicht zur Hand,\nMan pflegt den Finger zu gebrauchen.\nDann denk ich, wenn ich mich verbrannt:\nO, macht die Kohle solche Pein,\nWie heiß mag erst die Hölle sein? \n\n6. Ich kann bei so gestalten Sachen\nMir bei dem Toback jederzeit\nErbauliche Gedanken machen.\nDrum schmauch ich voll Zufriedenheit\nZu Land, zu Wasser und zu Haus\nMein Pfeifchen stets in Andacht aus." !1!F,2 !2!A,2 | %15
 !1!D,2 A,,2 D,,2 :| !5!D,2 D2 C2 | !3!B,2 !5!E,2 !3!F,2 | G,2 !1!A,2 A,,2 | !1!D,2 A,,2 !4!F,,2 | %20
 D,,2 !1!D,2 !3!B,,2 | !1!F,2 !2!C,2 !1!D,2 | !3!B,,2 !1!C,2 C,,2 | !3!F,,6 :: %24
 !1!C2 !5!E,2 !3!G,2 | !1!=B,2 !3!G,2 C2 | !3!F,4 G,2 | A,2 G,!3!F, !1!E,D, | %28
"_Kdykoli sáhnu pro dýmčičku\ntabákem pěkně nacpanou\na zadýmám si na chviličku,\nchmurné mi věci vytanou\na napadá mi, jak já sám\nse té své dýmce podobám:\n\nCo že je dýmka? Pouhá hlína!\nA co je člověk? Hlína též!\nA častokrát mi připomíná,\nkdyž se tak - než se naděješ -\npři pádu na zem rozbíjí,\njak ten náš život pomíjí." !3!^C,=B,, A,,B,, C,D, | %29
"_Jindy po dýmky zapálení\nspatřím jak v krátku, ve chvíli,\ntabák se v pouhý popel změní,\ndým v povětří se rozptýlí.\nTak také lidská sláva, ach,\nzajde – a z těla zbude prach.\n\nKdyž, jak při kouření se stává,\nťapťátko nelze nalézti,\ndusá se palcem dýmka žhavá.\nTu myslím při té bolesti:\nmalý-li uhlík takto žhne,\njak je ve výhni pekelné?" !1!E,2 D,2 !3!^C,2 | %30
 !2!D,2"_A tak mi dýmka napomáhá\nk myšlenkám zbožným, plným krás,\na proto též je mi tak drahá\na proto též si v každý čas,\nať jsem, kde jsem, zde nebo tam,\ns chutí a zbožně zadýmám." !1!F,2 !2!A,2 | %31
 !1!D,2 A,,2 D,,2 :| %32

